third_party/noto/noto_2/emoji_u1f4c0.svg

<svg enable-background="new 0 0 128 128" version="1.1" viewBox="0 0 128 128" xmlns="http://www.w3.org/2000/svg"><path d="m54.79 7.76c-31.03 5.08-52.12 34.42-47.03 65.45s34.43 52.11 65.46 47.03 52.11-34.43 47.03-65.46c-5.09-31.02-34.43-52.11-65.46-47.02zm11.51 70.3c-7.78 1.27-15.09-3.98-16.36-11.76s3.98-15.09 11.76-16.36 15.09 3.98 16.36 11.76c1.37 7.76-3.88 15.07-11.76 16.36z" fill="#FAD56E"/><linearGradient id="i" x1="34.656" x2="31.029" y1="44.491" y2="50.352" gradientUnits="userSpaceOnUse"><stop stop-color="#FFF9C4" stop-opacity=".6" offset="0"/><stop stop-color="#FFF9C4" stop-opacity="0" offset=".9495"/></linearGradient><path d="m10.77 43.61 39.28 17.38s0.37-1.46 1.05-3.05 1.77-2.87 1.77-2.87l-34.97-24.62s-1.97 2.69-4.04 6.43c-2.06 3.75-3.09 6.73-3.09 6.73z" fill="url(#i)"/><linearGradient id="h" x1="38.141" x2="48.932" y1="40.904" y2="31.695" gradientUnits="userSpaceOnUse"><stop stop-color="#FFF9C4" stop-opacity=".6" offset="0"/><stop stop-color="#FFF9C4" stop-opacity=".0067021" offset=".9888"/><stop stop-color="#FFF9C4" stop-opacity="0" offset="1"/></linearGradient><path d="m62.53 49.83-17.73-39.5s-7.16 2.24-14.78 7.91c-7.41 5.52-12.12 12.21-12.12 12.21l34.97 24.62s1.33-1.82 4.05-3.45 5.61-1.79 5.61-1.79z" fill="url(#h)"/><linearGradient id="g" x1="34.103" x2="33.579" y1="48.856" y2="56.277" gradientTransform="matrix(.9934 .115 -.115 .9934 1.571 1.6437)" gradientUnits="userSpaceOnUse"><stop stop-color="#FFC2C8" stop-opacity=".8" offset="0"/><stop stop-color="#FFCDD2" stop-opacity="0" offset=".9304"/></linearGradient><path d="m7.35 57.71 42.4 7.51s-0.03-1.23 0.07-2.69c0.11-1.46 0.46-2.42 0.46-2.42l-40.21-14.54s-0.92 2.29-1.71 5.83-1.01 6.31-1.01 6.31z" fill="url(#g)"/><linearGradient id="f" x1="34.478" x2="41.061" y1="45.128" y2="32.508" gradientTransform="matrix(.9934 .115 -.115 .9934 1.571 1.6437)" gradientUnits="userSpaceOnUse"><stop stop-color="#FFC2C8" stop-opacity=".8" offset="0"/><stop stop-color="#FFCDD2" stop-opacity="0" offset=".9304"/></linearGradient><path d="m51.94 56.39c0.94-1.59 2.28-2.77 2.28-2.77l-32.23-28.11s-3.63 3.88-6.87 9.32c-3.71 6.23-5.05 10.74-5.05 10.74l40.21 14.54s0.52-1.78 1.66-3.72z" fill="url(#f)"/><linearGradient id="e" x1="45.492" x2="39.352" y1="33.598" y2="38.202" gradientUnits="userSpaceOnUse"><stop stop-color="#80DEEA" stop-opacity=".5" offset="0"/><stop stop-color="#80DEEA" stop-opacity="0" offset=".9264"/></linearGradient><path d="m28.4 19.46c-3.89 3.05-6.94 6.57-6.94 6.57l31.34 29.06s1.12-1.3 2.6-2.45 3.05-1.77 3.05-1.77l-21.53-37.03s-4.64 2.57-8.52 5.62z" fill="url(#e)"/><linearGradient id="d" x1="53.405" x2="63.451" y1="31.356" y2="28.659" gradientUnits="userSpaceOnUse"><stop stop-color="#80DEEA" stop-opacity=".5" offset="0"/><stop stop-color="#80DEEA" stop-opacity="0" offset=".9466"/></linearGradient><path d="m69.07 50.68-8.79-43.55s-5.7 0.33-11.57 1.96c-6.16 1.72-11.8 4.75-11.8 4.75l21.53 37.01s2.48-1.09 5.38-1.11 5.25 0.94 5.25 0.94z" fill="url(#d)"/><linearGradient id="c" x1="96.534" x2="99.371" y1="49.734" y2="60.432" gradientUnits="userSpaceOnUse"><stop stop-color="#fff" stop-opacity=".5" offset="0"/><stop stop-color="#fff" stop-opacity="0" offset=".907"/></linearGradient><path d="m114.72 38.01-38.78 17.92c3.67 5.3 2.34 10.38 2.34 10.38l42.58-6.2c-0.48-9.19-3.76-17.46-6.14-22.1z" fill="url(#c)"/><linearGradient id="b" x1="93.391" x2="91.112" y1="45.481" y2="41.481" gradientUnits="userSpaceOnUse"><stop stop-color="#fff" stop-opacity=".5" offset="0"/><stop stop-color="#fff" stop-opacity="0" offset=".907"/></linearGradient><path d="m103.42 22.86-32.05 28.95c1.72 1.04 3.41 2.44 4.57 4.12l38.78-17.92c-1.92-3.67-5.78-9.97-11.3-15.15z" fill="url(#b)"/><linearGradient id="a" x1="36.143" x2="37.352" y1="84.388" y2="86.342" gradientUnits="userSpaceOnUse"><stop stop-color="#fff" stop-opacity=".5" offset="0"/><stop stop-color="#fff" stop-opacity="0" offset=".907"/></linearGradient><path d="m52.95 72.99-37.1 21.51c3.23 5.08 7.23 9.57 11.8 13.35l30.45-30.87c-1.99-0.91-3.75-2.28-5.15-3.99z" fill="url(#a)"/><linearGradient id="p" x1="32.583" x2="28.862" y1="80.69" y2="69.621" gradientUnits="userSpaceOnUse"><stop stop-color="#fff" stop-opacity=".5" offset="0"/><stop stop-color="#fff" stop-opacity="0" offset=".907"/></linearGradient><path d="m49.94 66.3c-0.18-1.07-0.22-2.14-0.15-3.18l-42.17 9.09c0.05 0.33 0.08 0.67 0.14 1 1.28 7.81 4.1 15 8.1 21.29l37.1-21.51c-1.53-1.86-2.6-4.13-3.02-6.69z" fill="url(#p)"/><linearGradient id="o" x1="-19.454" x2="-23.082" y1="-6.2395" y2="-.3791" gradientTransform="matrix(-.9999 .0167 -.0167 -.9999 73.963 77.059)" gradientUnits="userSpaceOnUse"><stop stop-color="#FFF9C4" stop-opacity=".6" offset="0"/><stop stop-color="#FFF9C4" stop-opacity="0" offset=".9495"/></linearGradient><path d="m117.16 83.31-39.14-16.28s-0.34 1.46-1 3.07-1.73 2.9-1.73 2.9l34.96 23.58s1.93-2.72 3.93-6.5 2.98-6.77 2.98-6.77z" fill="url(#o)"/><linearGradient id="n" x1="-15.918" x2="-5.1278" y1="-9.9045" y2="-19.114" gradientTransform="matrix(-.9999 .0167 -.0167 -.9999 73.963 77.059)" gradientUnits="userSpaceOnUse"><stop stop-color="#FFF9C4" stop-opacity=".6" offset="0"/><stop stop-color="#FFF9C4" stop-opacity=".0067021" offset=".9888"/><stop stop-color="#FFF9C4" stop-opacity="0" offset="1"/></linearGradient><path d="m65.72 78.4 17.96 38.75s7.12-2.36 14.65-8.16c7.33-5.65 11.93-12.42 11.93-12.42l-34.96-23.58s-1.3 1.84-3.99 3.51c-2.7 1.68-5.59 1.9-5.59 1.9z" fill="url(#n)"/><linearGradient id="m" x1="-25.559" x2="-26.082" y1="4.7825" y2="12.204" gradientTransform="matrix(-.9952 -.0984 .0984 -.9952 72.364 75.442)" gradientUnits="userSpaceOnUse"><stop stop-color="#FFC2C8" stop-opacity=".8" offset="0"/><stop stop-color="#FFCDD2" stop-opacity="0" offset=".9304"/></linearGradient><path d="m120.35 69.15-41.88-6.44s0.05 1.23-0.03 2.69-0.42 2.43-0.42 2.43l39.81 13.51s0.88-2.3 1.61-5.86c0.74-3.56 0.91-6.33 0.91-6.33z" fill="url(#m)"/><linearGradient id="l" x1="-25.177" x2="-18.594" y1=".9033" y2="-11.716" gradientTransform="matrix(-.9952 -.0984 .0984 -.9952 72.364 75.442)" gradientUnits="userSpaceOnUse"><stop stop-color="#FFC2C8" stop-opacity=".8" offset="0"/><stop stop-color="#FFCDD2" stop-opacity="0" offset=".9304"/></linearGradient><path d="m76.46 71.57c-0.91 1.61-2.23 2.81-2.23 2.81l32.03 27.21s3.56-3.94 6.71-9.43c3.61-6.29 4.87-10.82 4.87-10.82l-39.79-13.51s-0.48 1.78-1.59 3.74z" fill="url(#l)"/><linearGradient id="k" x1="-8.453" x2="-14.592" y1="-17.091" y2="-12.486" gradientTransform="matrix(-.9999 .0167 -.0167 -.9999 73.963 77.059)" gradientUnits="userSpaceOnUse"><stop stop-color="#80DEEA" stop-opacity=".5" offset="0"/><stop stop-color="#80DEEA" stop-opacity="0" offset=".9264"/></linearGradient><path d="m99.94 107.75c3.84-3.11 6.83-6.69 6.83-6.69l-31.6-28.07s-0.82 1.19-2.28 2.37c-1.46 1.17-3.52 1.85-3.52 1.85l22.15 36.29s4.59-2.64 8.42-5.75z" fill="url(#k)"/><linearGradient id="j" x1="-.5003" x2="9.5462" y1="-19.385" y2="-22.083" gradientTransform="matrix(-.9999 .0167 -.0167 -.9999 73.963 77.059)" gradientUnits="userSpaceOnUse"><stop stop-color="#80DEEA" stop-opacity=".5" offset="0"/><stop stop-color="#80DEEA" stop-opacity="0" offset=".9466"/></linearGradient><path d="m58.75 77.57 9.51 43.04s5.7-0.42 11.53-2.16c6.13-1.82 11.72-4.95 11.72-4.95l-22.14-36.29s-2.46 1.13-5.36 1.2-5.26-0.84-5.26-0.84z" fill="url(#j)"/><path d="m64 41.2c-12.77 0-23.04 10.16-23.04 22.8s10.27 22.8 23.04 22.8 23.04-10.17 23.04-22.8-10.27-22.8-23.04-22.8zm0 36.95c-7.97 0-14.4-6.36-14.4-14.25s6.43-14.26 14.4-14.25 14.4 6.36 14.4 14.25c0.09 7.89-6.34 14.25-14.4 14.25z" fill="#D3792F" opacity=".25"/><path d="M64,9.86c29.83,0,54.14,24.32,54.14,54.14S93.83,118.14,64,118.14S9.86,93.83,9.86,64   S34.17,9.86,64,9.86 M64,81.1c9.4,0,17.1-7.69,17.1-17.1S73.4,46.9,64,46.9S46.9,54.6,46.9,64C46.9,73.4,54.6,81.1,64,81.1    M64,7.01C32.56,7.01,7.01,32.56,7.01,64S32.56,120.99,64,120.99S120.99,95.44,120.99,64S95.44,7.01,64,7.01z M64,78.25   c-7.88,0-14.25-6.36-14.25-14.25S56.12,49.75,64,49.75S78.25,56.12,78.25,64C78.34,71.88,71.98,78.25,64,78.25z" fill="#F4A55D"/></svg>

<?xml version="1.0" encoding="utf-8"?>
<!-- Generator: Adobe Illustrator 25.2.3, SVG Export Plug-In . SVG Version: 6.00 Build 0)  -->
<svg version="1.1" id="Layer_10" xmlns="http://www.w3.org/2000/svg" xmlns:xlink="http://www.w3.org/1999/xlink" x="0px" y="0px"
	 viewBox="0 0 128 128" style="enable-background:new 0 0 128 128;" xml:space="preserve">
<g>
	<path style="fill:#FAD56E;" d="M54.79,7.76C23.76,12.84,2.67,42.18,7.76,73.21s34.43,52.11,65.46,47.03s52.11-34.43,47.03-65.46
		C115.16,23.76,85.82,2.67,54.79,7.76z M66.3,78.06c-7.78,1.27-15.09-3.98-16.36-11.76c-1.27-7.78,3.98-15.09,11.76-16.36
		c7.78-1.27,15.09,3.98,16.36,11.76C79.43,69.46,74.18,76.77,66.3,78.06z"/>
	<g>
		<g>
			<linearGradient id="SVGID_1_" gradientUnits="userSpaceOnUse" x1="34.6565" y1="44.4914" x2="31.0286" y2="50.3519">
				<stop  offset="0" style="stop-color:#FFF9C4;stop-opacity:0.6"/>
				<stop  offset="0.9495" style="stop-color:#FFF9C4;stop-opacity:0"/>
			</linearGradient>
			<path style="fill:url(#SVGID_1_);" d="M10.77,43.61l39.28,17.38c0,0,0.37-1.46,1.05-3.05c0.68-1.59,1.77-2.87,1.77-2.87
				L17.9,30.45c0,0-1.97,2.69-4.04,6.43C11.8,40.63,10.77,43.61,10.77,43.61z"/>
			<linearGradient id="SVGID_2_" gradientUnits="userSpaceOnUse" x1="38.1409" y1="40.9045" x2="48.9316" y2="31.6952">
				<stop  offset="0" style="stop-color:#FFF9C4;stop-opacity:0.6"/>
				<stop  offset="0.9888" style="stop-color:#FFF9C4;stop-opacity:6.702065e-03"/>
				<stop  offset="1" style="stop-color:#FFF9C4;stop-opacity:0"/>
			</linearGradient>
			<path style="fill:url(#SVGID_2_);" d="M62.53,49.83l-17.73-39.5c0,0-7.16,2.24-14.78,7.91C22.61,23.76,17.9,30.45,17.9,30.45
				l34.97,24.62c0,0,1.33-1.82,4.05-3.45S62.53,49.83,62.53,49.83z"/>
		</g>
		<g>
			
				<linearGradient id="SVGID_3_" gradientUnits="userSpaceOnUse" x1="34.1031" y1="48.8557" x2="33.5792" y2="56.2774" gradientTransform="matrix(0.9934 0.115 -0.115 0.9934 1.571 1.6437)">
				<stop  offset="0" style="stop-color:#FFC2C8;stop-opacity:0.8"/>
				<stop  offset="0.9304" style="stop-color:#FFCDD2;stop-opacity:0"/>
			</linearGradient>
			<path style="fill:url(#SVGID_3_);" d="M7.35,57.71l42.4,7.51c0,0-0.03-1.23,0.07-2.69c0.11-1.46,0.46-2.42,0.46-2.42L10.07,45.57
				c0,0-0.92,2.29-1.71,5.83C7.57,54.94,7.35,57.71,7.35,57.71z"/>
			
				<linearGradient id="SVGID_4_" gradientUnits="userSpaceOnUse" x1="34.4779" y1="45.1283" x2="41.061" y2="32.5085" gradientTransform="matrix(0.9934 0.115 -0.115 0.9934 1.571 1.6437)">
				<stop  offset="0" style="stop-color:#FFC2C8;stop-opacity:0.8"/>
				<stop  offset="0.9304" style="stop-color:#FFCDD2;stop-opacity:0"/>
			</linearGradient>
			<path style="fill:url(#SVGID_4_);" d="M51.94,56.39c0.94-1.59,2.28-2.77,2.28-2.77L21.99,25.51c0,0-3.63,3.88-6.87,9.32
				c-3.71,6.23-5.05,10.74-5.05,10.74l40.21,14.54C50.28,60.11,50.8,58.33,51.94,56.39z"/>
		</g>
		<g>
			<linearGradient id="SVGID_5_" gradientUnits="userSpaceOnUse" x1="45.4919" y1="33.5977" x2="39.3524" y2="38.2023">
				<stop  offset="0" style="stop-color:#80DEEA;stop-opacity:0.5"/>
				<stop  offset="0.9264" style="stop-color:#80DEEA;stop-opacity:0"/>
			</linearGradient>
			<path style="fill:url(#SVGID_5_);" d="M28.4,19.46c-3.89,3.05-6.94,6.57-6.94,6.57l31.34,29.06c0,0,1.12-1.3,2.6-2.45
				c1.48-1.15,3.05-1.77,3.05-1.77L36.92,13.84C36.92,13.84,32.28,16.41,28.4,19.46z"/>
			<linearGradient id="SVGID_6_" gradientUnits="userSpaceOnUse" x1="53.4046" y1="31.3562" x2="63.4511" y2="28.6586">
				<stop  offset="0" style="stop-color:#80DEEA;stop-opacity:0.5"/>
				<stop  offset="0.9466" style="stop-color:#80DEEA;stop-opacity:0"/>
			</linearGradient>
			<path style="fill:url(#SVGID_6_);" d="M69.07,50.68L60.28,7.13c0,0-5.7,0.33-11.57,1.96c-6.16,1.72-11.8,4.75-11.8,4.75
				l21.53,37.01c0,0,2.48-1.09,5.38-1.11S69.07,50.68,69.07,50.68z"/>
		</g>
		<g>
			<linearGradient id="SVGID_7_" gradientUnits="userSpaceOnUse" x1="96.534" y1="49.734" x2="99.3712" y2="60.4317">
				<stop  offset="0" style="stop-color:#FFFFFF;stop-opacity:0.5"/>
				<stop  offset="0.907" style="stop-color:#FFFFFF;stop-opacity:0"/>
			</linearGradient>
			<path style="fill:url(#SVGID_7_);" d="M114.72,38.01L75.94,55.93c3.67,5.3,2.34,10.38,2.34,10.38l42.58-6.2
				C120.38,50.92,117.1,42.65,114.72,38.01z"/>
			<linearGradient id="SVGID_8_" gradientUnits="userSpaceOnUse" x1="93.3913" y1="45.4808" x2="91.1122" y2="41.4808">
				<stop  offset="0" style="stop-color:#FFFFFF;stop-opacity:0.5"/>
				<stop  offset="0.907" style="stop-color:#FFFFFF;stop-opacity:0"/>
			</linearGradient>
			<path style="fill:url(#SVGID_8_);" d="M103.42,22.86L71.37,51.81c1.72,1.04,3.41,2.44,4.57,4.12l38.78-17.92
				C112.8,34.34,108.94,28.04,103.42,22.86z"/>
		</g>
		<g>
			<linearGradient id="SVGID_9_" gradientUnits="userSpaceOnUse" x1="36.1431" y1="84.388" x2="37.3524" y2="86.3415">
				<stop  offset="0" style="stop-color:#FFFFFF;stop-opacity:0.5"/>
				<stop  offset="0.907" style="stop-color:#FFFFFF;stop-opacity:0"/>
			</linearGradient>
			<path style="fill:url(#SVGID_9_);" d="M52.95,72.99L15.85,94.5c3.23,5.08,7.23,9.57,11.8,13.35L58.1,76.98
				C56.11,76.07,54.35,74.7,52.95,72.99z"/>
			<g>
				<linearGradient id="SVGID_10_" gradientUnits="userSpaceOnUse" x1="32.5833" y1="80.6904" x2="28.8624" y2="69.6207">
					<stop  offset="0" style="stop-color:#FFFFFF;stop-opacity:0.5"/>
					<stop  offset="0.907" style="stop-color:#FFFFFF;stop-opacity:0"/>
				</linearGradient>
				<path style="fill:url(#SVGID_10_);" d="M49.94,66.3c-0.18-1.07-0.22-2.14-0.15-3.18L7.62,72.21c0.05,0.33,0.08,0.67,0.14,1
					c1.28,7.81,4.1,15,8.1,21.29l37.1-21.51C51.43,71.13,50.36,68.86,49.94,66.3z"/>
			</g>
		</g>
		<g>
			
				<linearGradient id="SVGID_11_" gradientUnits="userSpaceOnUse" x1="-19.4543" y1="-6.2395" x2="-23.0822" y2="-0.3791" gradientTransform="matrix(-0.9999 0.0167 -0.0167 -0.9999 73.9626 77.059)">
				<stop  offset="0" style="stop-color:#FFF9C4;stop-opacity:0.6"/>
				<stop  offset="0.9495" style="stop-color:#FFF9C4;stop-opacity:0"/>
			</linearGradient>
			<path style="fill:url(#SVGID_11_);" d="M117.16,83.31L78.02,67.03c0,0-0.34,1.46-1,3.07s-1.73,2.9-1.73,2.9l34.96,23.58
				c0,0,1.93-2.72,3.93-6.5S117.16,83.31,117.16,83.31z"/>
			
				<linearGradient id="SVGID_12_" gradientUnits="userSpaceOnUse" x1="-15.9184" y1="-9.9045" x2="-5.1278" y2="-19.1137" gradientTransform="matrix(-0.9999 0.0167 -0.0167 -0.9999 73.9626 77.059)">
				<stop  offset="0" style="stop-color:#FFF9C4;stop-opacity:0.6"/>
				<stop  offset="0.9888" style="stop-color:#FFF9C4;stop-opacity:6.702065e-03"/>
				<stop  offset="1" style="stop-color:#FFF9C4;stop-opacity:0"/>
			</linearGradient>
			<path style="fill:url(#SVGID_12_);" d="M65.72,78.4l17.96,38.75c0,0,7.12-2.36,14.65-8.16c7.33-5.65,11.93-12.42,11.93-12.42
				L75.3,72.99c0,0-1.3,1.84-3.99,3.51C68.61,78.18,65.72,78.4,65.72,78.4z"/>
		</g>
		<g>
			
				<linearGradient id="SVGID_13_" gradientUnits="userSpaceOnUse" x1="-25.5586" y1="4.7825" x2="-26.0825" y2="12.2042" gradientTransform="matrix(-0.9952 -0.0984 0.0984 -0.9952 72.3644 75.4418)">
				<stop  offset="0" style="stop-color:#FFC2C8;stop-opacity:0.8"/>
				<stop  offset="0.9304" style="stop-color:#FFCDD2;stop-opacity:0"/>
			</linearGradient>
			<path style="fill:url(#SVGID_13_);" d="M120.35,69.15l-41.88-6.44c0,0,0.05,1.23-0.03,2.69c-0.08,1.46-0.42,2.43-0.42,2.43
				l39.81,13.51c0,0,0.88-2.3,1.61-5.86C120.18,71.92,120.35,69.15,120.35,69.15z"/>
			
				<linearGradient id="SVGID_14_" gradientUnits="userSpaceOnUse" x1="-25.1774" y1="0.9033" x2="-18.5943" y2="-11.7165" gradientTransform="matrix(-0.9952 -0.0984 0.0984 -0.9952 72.3644 75.4418)">
				<stop  offset="0" style="stop-color:#FFC2C8;stop-opacity:0.8"/>
				<stop  offset="0.9304" style="stop-color:#FFCDD2;stop-opacity:0"/>
			</linearGradient>
			<path style="fill:url(#SVGID_14_);" d="M76.46,71.57c-0.91,1.61-2.23,2.81-2.23,2.81l32.03,27.21c0,0,3.56-3.94,6.71-9.43
				c3.61-6.29,4.87-10.82,4.87-10.82L78.05,67.83C78.05,67.83,77.57,69.61,76.46,71.57z"/>
		</g>
		<g>
			
				<linearGradient id="SVGID_15_" gradientUnits="userSpaceOnUse" x1="-8.453" y1="-17.0908" x2="-14.5925" y2="-12.4862" gradientTransform="matrix(-0.9999 0.0167 -0.0167 -0.9999 73.9626 77.059)">
				<stop  offset="0" style="stop-color:#80DEEA;stop-opacity:0.5"/>
				<stop  offset="0.9264" style="stop-color:#80DEEA;stop-opacity:0"/>
			</linearGradient>
			<path style="fill:url(#SVGID_15_);" d="M99.94,107.75c3.84-3.11,6.83-6.69,6.83-6.69l-31.6-28.07c0,0-0.82,1.19-2.28,2.37
				c-1.46,1.17-3.52,1.85-3.52,1.85l22.15,36.29C91.52,113.5,96.11,110.86,99.94,107.75z"/>
			
				<linearGradient id="SVGID_16_" gradientUnits="userSpaceOnUse" x1="-0.5003" y1="-19.385" x2="9.5462" y2="-22.0826" gradientTransform="matrix(-0.9999 0.0167 -0.0167 -0.9999 73.9626 77.059)">
				<stop  offset="0" style="stop-color:#80DEEA;stop-opacity:0.5"/>
				<stop  offset="0.9466" style="stop-color:#80DEEA;stop-opacity:0"/>
			</linearGradient>
			<path style="fill:url(#SVGID_16_);" d="M58.75,77.57l9.51,43.04c0,0,5.7-0.42,11.53-2.16c6.13-1.82,11.72-4.95,11.72-4.95
				L69.37,77.21c0,0-2.46,1.13-5.36,1.2C61.11,78.48,58.75,77.57,58.75,77.57z"/>
		</g>
	</g>
	<path style="opacity:0.25;fill:#D3792F;" d="M64,41.2c-12.77,0-23.04,10.16-23.04,22.8S51.23,86.8,64,86.8S87.04,76.63,87.04,64
		S76.77,41.2,64,41.2z M64,78.15c-7.97,0-14.4-6.36-14.4-14.25c0-7.89,6.43-14.26,14.4-14.25c7.97,0.01,14.4,6.36,14.4,14.25
		C78.49,71.79,72.06,78.15,64,78.15z"/>
	<path style="fill:#F4A55D;" d="M64,9.86c29.83,0,54.14,24.32,54.14,54.14S93.83,118.14,64,118.14S9.86,93.83,9.86,64
		S34.17,9.86,64,9.86 M64,81.1c9.4,0,17.1-7.69,17.1-17.1S73.4,46.9,64,46.9S46.9,54.6,46.9,64C46.9,73.4,54.6,81.1,64,81.1
		 M64,7.01C32.56,7.01,7.01,32.56,7.01,64S32.56,120.99,64,120.99S120.99,95.44,120.99,64S95.44,7.01,64,7.01z M64,78.25
		c-7.88,0-14.25-6.36-14.25-14.25S56.12,49.75,64,49.75S78.25,56.12,78.25,64C78.34,71.88,71.98,78.25,64,78.25z"/>
</g>
</svg>
